X: 25946
T: Maurice O'Keeffe's
R: polka
M: 2/4
K: Dmajor
E|F2 GF/G/|BA D>d|cA Bc|BA FD|
F2 GF/G/|BA D>d|cA GE|ED D:|
z|ff/e/ fg|fd A>d|cA Bc|BA FD|
ff/e/ fg|fd A>d|cA Bc|d2 de|
ff/e/ fg|fd A>d|cA Bc|BA FD|
F2 GF/G/|BA D>d|cA GE|ED D||

